app/assets/ui_icons/icn_instagram.svg

<svg width="36px" height="36px" viewBox="0 0 36 36" version="1.1" xmlns="http://www.w3.org/2000/svg" xmlns:xlink="http://www.w3.org/1999/xlink">
    <!-- Generator: Sketch 40.1 (33804) - http://www.bohemiancoding.com/sketch -->
    <desc>Created with Sketch.</desc>
    <defs>
        <circle id="path-1" cx="18" cy="18" r="18"></circle>
        <mask id="mask-2" maskContentUnits="userSpaceOnUse" maskUnits="objectBoundingBox" x="0" y="0" width="36" height="36" fill="white">
            <use xlink:href="#path-1"></use>
        </mask>
    </defs>
    <g id="facebook" stroke="none" stroke-width="1" fill="none" fill-rule="evenodd">
        <use id="circle" stroke="#FFFFFF" mask="url(#mask-2)" stroke-width="2" xlink:href="#path-1"></use>

<svg width="36px" height="36px" viewBox="56 0 36 36" version="1.1" xmlns="http://www.w3.org/2000/svg" xmlns:xlink="http://www.w3.org/1999/xlink">
    <!-- Generator: Sketch 40.1 (33804) - http://www.bohemiancoding.com/sketch -->
    <desc>Created with Sketch.</desc>
    <defs>
        <circle id="path-1" cx="18" cy="18" r="18"></circle>
        <mask id="mask-2" maskContentUnits="userSpaceOnUse" maskUnits="objectBoundingBox" x="0" y="0" width="36" height="36" fill="white">
            <use xlink:href="#path-1"></use>
        </mask>
    </defs>
    <g id="instagram" stroke="none" stroke-width="1" fill="none" fill-rule="evenodd" transform="translate(56.000000, 0.000000)">
        <use id="Circle" stroke="#FFFFFF" mask="url(#mask-2)" stroke-width="2" xlink:href="#path-1"></use>
        <path d="M23.8583426,13.0418689 C23.5637976,12.7472452 23.2108238,12.6 22.799608,12.6 L14.1006588,12.6 C13.6893096,12.6 13.3364426,12.7472985 13.0418175,13.0418689 C12.7472458,13.3363592 12.6,13.689278 12.6,14.1005452 L12.6,22.7993747 C12.6,23.2105886 12.7472191,23.5635875 13.0418175,23.8581045 C13.3364426,24.1526481 13.6893896,24.3 14.1006588,24.3 L22.7995013,24.3 C23.210637,24.3 23.5637175,24.1526481 23.8582625,23.8581045 C24.1528876,23.5635875 24.3,23.2105886 24.3,22.7993747 L24.3,14.1005452 C24.2999733,13.6891979 24.1528876,13.3364659 23.8583426,13.0418689 L23.8583426,13.0418689 L23.8583426,13.0418689 L23.8583426,13.0418689 Z M16.8601223,16.8584414 C17.3001186,16.4195508 17.8289113,16.2 18.4464236,16.2 C19.068713,16.2 19.5998814,16.4195508 20.0399799,16.8584414 C20.4800785,17.2974112 20.7,17.8279702 20.7,18.4500132 C20.7,19.071977 20.4800785,19.6025625 20.0399799,20.0414004 C19.5998814,20.4804756 19.0688918,20.7 18.4464236,20.7 C17.8289369,20.7 17.3001953,20.4802911 16.8601223,20.0414004 C16.4200237,19.6025097 16.2,19.071977 16.2,18.4500132 C16.2,17.8279702 16.4200237,17.2974375 16.8601223,16.8584414 L16.8601223,16.8584414 L16.8601223,16.8584414 L16.8601223,16.8584414 Z M23.3999418,22.8580953 C23.3999418,23.011996 23.3499238,23.1407808 23.2502664,23.2445121 C23.1503179,23.3481499 23.0313579,23.4 22.8926877,23.4 L14.0070794,23.4 C13.8630231,23.4 13.7424036,23.3481499 13.645512,23.2445121 C13.5484749,23.1409987 13.5,23.011996 13.5,22.8580953 L13.5,17.1 L14.6719861,17.1 C14.5612071,17.473252 14.5058031,17.8613182 14.5058031,18.2640432 C14.5058031,19.4016633 14.8936605,20.3715022 15.6694626,21.1743378 C16.445352,21.9768622 17.3790688,22.3783111 18.4707292,22.3783111 C19.1911273,22.3783111 19.8560631,22.1945951 20.4658278,21.8273497 C21.0753886,21.4598866 21.5571971,20.9609309 21.9120973,20.3299848 C22.2667938,19.6990698 22.4441275,19.0103915 22.4441275,18.2640743 C22.4441275,17.8613493 22.3885197,17.4733764 22.2777407,17.1000311 L23.4,17.1000311 L23.4,22.8581264 L23.3999418,22.8581264 L23.3999418,22.8580953 L23.3999418,22.8580953 L23.3999418,22.8580953 Z M23.4,14.8900702 C23.4,15.0049279 23.3615465,15.1019744 23.284498,15.181168 C23.2076112,15.260424 23.1134274,15.3 23.0018253,15.3 L21.9980332,15.3 C21.8865524,15.3 21.7922271,15.2604032 21.7153403,15.181168 C21.6384333,15.1019744 21.6,15.0049279 21.6,14.8900702 L21.6,13.9099506 C21.6,13.7990463 21.6384333,13.7030194 21.7153403,13.6218075 C21.7922473,13.5406372 21.8865726,13.5 21.9980332,13.5 L23.0018253,13.5 C23.1134274,13.5 23.2076314,13.5406164 23.284498,13.6218075 C23.3615263,13.7030194 23.4,13.7990463 23.4,13.9099506 L23.4,14.8900702 L23.4,14.8900702 L23.4,14.8900702 L23.4,14.8900702 Z" id="Shape" fill="#FFFFFF"></path>
    </g>
</svg>    </g>
</svg>

<svg width="36" height="36" viewBox="0 0 36 36" xmlns="http://www.w3.org/2000/svg" xmlns:xlink="http://www.w3.org/1999/xlink">
  <defs>
    <circle id="a" cx="18" cy="18" r="18"/>
    <mask id="b" x="0" y="0" width="36" height="36" fill="#fff">
      <use xlink:href="#a"/>
    </mask>
  </defs>
  <g fill="none" fill-rule="evenodd">
    <use stroke="#FFF" mask="url(#b)" stroke-width="2" xlink:href="#a"/>
    <svg width="36" height="36" viewBox="56 0 36 36" xmlns="http://www.w3.org/2000/svg" xmlns:xlink="http://www.w3.org/1999/xlink">
      <g transform="translate(56)">
        <use stroke="#FFF" mask="url(#b)" stroke-width="2" xlink:href="#a"/>
        <path d="M23.8583 13.042c-.2945-.2948-.6475-.442-1.0587-.442h-8.699c-.4113 0-.7642.1473-1.0588.442-.2946.2944-.4418.6473-.4418 1.0585v8.699c0 .411.1472.764.4418 1.0586.2946.295.6476.442 1.059.442h8.6987c.411 0 .7642-.147 1.0588-.442.2946-.294.4417-.647.4417-1.058v-8.699c0-.4112-.147-.764-.4417-1.0585zM16.86 16.8583c.44-.4388.969-.6584 1.5864-.6584.6223 0 1.1535.219 1.5936.658.44.439.66.9694.66 1.5914 0 .622-.22 1.1525-.66 1.5913-.44.439-.971.6586-1.5936.6586-.6175 0-1.1462-.2198-1.5863-.6587-.44-.439-.66-.9695-.66-1.5915 0-.622.22-1.1526.66-1.5916zm6.54 5.9997c0 .154-.05.2828-.1497.3865-.1.1036-.219.1555-.3576.1555H14.007c-.144 0-.2646-.052-.3615-.1555-.097-.1035-.1455-.2325-.1455-.3864V17.1h1.172c-.1108.3733-.1662.7613-.1662 1.164 0 1.1377.388 2.1075 1.1637 2.9103.776.8026 1.7096 1.204 2.8012 1.204.7204 0 1.3854-.1837 1.995-.551.6097-.3674 1.0915-.8664 1.4464-1.4973.355-.631.532-1.3196.532-2.066 0-.4027-.055-.7906-.166-1.164H23.4v5.758zm0-7.968c0 .115-.0385.212-.1155.2912-.077.0792-.171.1188-.2827.1188H21.998c-.1114 0-.2058-.0396-.2827-.1188-.077-.0792-.1153-.1763-.1153-.291V13.91c0-.111.0384-.207.1153-.2882.077-.0812.1713-.1218.2827-.1218h1.0038c.1116 0 .2058.0406.2827.1218.077.0812.1155.1772.1155.2882v.98z" fill="#FFF"/>
      </g>
    </svg>
  </g>
</svg>
